icons/op-color-underline-24.svg

<svg width="24" height="24" viewBox="0 0 24 24" fill="none" xmlns="http://www.w3.org/2000/svg">
<path d="M19.24 19.4645C19.24 19.748 18.986 20 18.7002 20H4.53975C4.254 20 4 19.748 4 19.4645V18.3935C4 18.0785 4.254 17.8265 4.53975 17.8265H18.7002C18.986 17.8265 19.24 18.0785 19.24 18.3935V19.4645ZM9.42923 16.7555C9.71498 16.7555 10.1277 16.5665 10.2865 16.346L10.4135 16.1885C10.604 15.9365 10.604 15.59 10.3817 15.3695L8.73074 13.6685C8.50849 13.448 8.19099 13.448 8.00049 13.6685L7.90524 13.7945C7.71474 14.015 7.36549 14.393 7.17499 14.6135L5.49225 16.3775C5.30175 16.598 5.36525 16.7555 5.68275 16.7555H9.42923ZM19.621 6.73854C20.1607 6.07704 20.129 5.10055 19.494 4.50205C18.8907 3.87205 17.9065 3.84055 17.2397 4.37605V4.34455L17.081 4.50205L9.14349 12.377L11.5565 14.771L19.494 6.89604L19.6527 6.73854H19.621Z" fill="black"/>
</svg>

<svg xmlns="http://www.w3.org/2000/svg" width="24" height="24" viewBox="0 0 24 24"><path d="M19.24 19.465a.554.554 0 0 1-.54.535H4.54a.554.554 0 0 1-.54-.535v-1.072c0-.315.254-.567.54-.567H18.7c.286 0 .54.252.54.567v1.072Zm-9.811-2.709c.286 0 .699-.189.858-.41l.127-.157c.19-.252.19-.599-.032-.819l-1.651-1.702c-.223-.22-.54-.22-.731 0l-.095.126c-.19.221-.54.599-.73.82l-1.683 1.764c-.19.22-.127.378.191.378h3.746ZM19.621 6.739c.54-.662.508-1.638-.127-2.237-.603-.63-1.587-.661-2.254-.126v-.031l-.159.157-7.938 7.875 2.413 2.394 7.938-7.875.159-.157h-.032Z"/></svg>
